X:368
T:Balance the Straw
O:england
M:6/8
L:1/8
C:Trad
S:Davenport
R:jig
K:G
D| G2 B BAB | c2 A ABc | ded cBA | B2 GG2 :|
|d2dd2B | c2BB2A| d2dd2B | c2BA2D| G2 B BAB | c2 AABc | ded cBA | B2 GG
2:|
